Hatter-kde/actions/24/discrete.svg

<?xml version="1.0" encoding="UTF-8"?>
<svg viewBox="0 0 24 24" xmlns="http://www.w3.org/2000/svg">
 <defs id="defs3051">
  <style id="current-color-scheme" type="text/css">.ColorScheme-Text {
        color:#363636;
      }</style>
 </defs>
 <g transform="translate(1,1)">
  <path class="ColorScheme-Text" d="m11 3v8h-8v8h16v-6.8457-1.1543-8h-8z" fill="currentColor"/>
 </g>
</svg>

<svg xmlns="http://www.w3.org/2000/svg" viewBox="0 0 24 24">
  <defs id="defs3051">
    <style type="text/css" id="current-color-scheme">
      .ColorScheme-Text {
        color:#363636;
      }
      </style>
  </defs><g transform="translate(1,1)">
 <path 
    style="fill:currentColor;fill-opacity:1;stroke:none" 
    d="M 11 3 L 11 11 L 3 11 L 3 19 L 19 19 L 19 12.154297 L 19 11 L 19 3 L 11 3 z "
    class="ColorScheme-Text"
    />  
</g></svg>
